azure-docs/api_bing_web_search.svg

<?xml version="1.0" encoding="UTF-8"?>
<svg width="512px" height="512px" viewBox="0 0 512 512" version="1.1" xmlns="http://www.w3.org/2000/svg" xmlns:xlink="http://www.w3.org/1999/xlink">
    <!-- Generator: Sketch 46.2 (44496) - http://www.bohemiancoding.com/sketch -->
    <title>bingWebSearch-wht-bluBG-512p</title>
    <desc>Created with Sketch.</desc>
    <defs></defs>
    <g id="PRODUCTION-ICONS" stroke="none" stroke-width="1" fill="none" fill-rule="evenodd">
        <g id="bingWebSearch-wht-bluBG-512p">
            <g id="Bing-Web-Search-API">
                <rect id="Rectangle-3-Copy-19" fill="#0063B1" x="0" y="0" width="512" height="512"></rect>
                <path d="M272.183192,312.939256 C228.212986,312.939256 192.516712,277.299887 192.516712,233.272776 C192.516712,189.245665 228.212986,153.606296 272.183192,153.606296 C316.153398,153.606296 351.849672,189.245665 351.849672,233.272776 C351.849672,277.299887 316.153398,312.939256 272.183192,312.939256 M169.754861,233.272776 C169.754861,259.118858 179.405886,282.671684 195.208301,300.69907 L113.777778,382.129593 L129.870407,398.222222 L212.04069,316.057629 C228.935674,328.354719 249.671721,335.701107 272.183192,335.701107 C328.780536,335.701107 374.611523,289.813215 374.611523,233.272776 C374.611523,176.732337 328.780536,130.844444 272.183192,130.844444 C215.585849,130.844444 169.754861,176.732337 169.754861,233.272776 Z" id="Fill-1" fill="#FFFFFF"></path>
            </g>
        </g>
    </g>
</svg>

<svg width="512" height="512" xmlns="http://www.w3.org/2000/svg"><g fill="none" fill-rule="evenodd"><path fill="#0063B1" d="M0 0h512v512H0z"/><path d="M272.183 312.94c-43.97 0-79.666-35.64-79.666-79.667s35.696-79.667 79.666-79.667 79.667 35.64 79.667 79.667-35.697 79.666-79.667 79.666m-102.428-79.666c0 25.846 9.65 49.399 25.453 67.426l-81.43 81.43 16.092 16.093 82.17-82.164c16.896 12.297 37.632 19.643 60.143 19.643 56.598 0 102.429-45.888 102.429-102.428S328.78 130.844 272.183 130.844c-56.597 0-102.428 45.888-102.428 102.429z" fill="#FFF"/></g></svg>
